modules/themify-icons/icons/layout-menu-separated.svg

<?xml version="1.0" encoding="utf-8"?>
<!-- Generated by IcoMoon.io -->
<!DOCTYPE svg PUBLIC "-//W3C//DTD SVG 1.1//EN" "http://www.w3.org/Graphics/SVG/1.1/DTD/svg11.dtd">
<svg version="1.1" xmlns="http://www.w3.org/2000/svg" xmlns:xlink="http://www.w3.org/1999/xlink" width="17" height="17" viewBox="0 0 17 17">
<g>
</g>
	<path d="M0 10h5v-3h-5v3zM1 8h3v1h-3v-1zM6 10h5v-3h-5v3zM7 8h3v1h-3v-1zM12 7v3h5v-3h-5zM16 9h-3v-1h3v1z" fill="#000000" />
</svg>

<svg xmlns="http://www.w3.org/2000/svg" width="17" height="17"><path d="M0 10h5V7H0v3zm1-2h3v1H1V8zm5 2h5V7H6v3zm1-2h3v1H7V8zm5-1v3h5V7h-5zm4 2h-3V8h3v1z"/></svg>
